;FLAVOR:Marlin
;TIME:817
;Filament used: 0.165457m
;Layer height: 0.1
;Generated with Cura_SteamEngine 1.2.3
M104 S230
M109 S230
G90
G28
M132 X Y Z A
G1 Z100 F3300
G1 X-110.5 Y-74 F6000
M6 T0
M907 X100 Y100 Z60 A100
G1 Z0.6 F3300
G4 P2000
M108 T0

;LAYER_COUNT:20
;LAYER:0
M107
M204 S4000
G0 F2933.3 X77.87 Y-44.544 Z0.2
M204 S3000
;TYPE:WALL-INNER
G1 F1200 X77.779 Y-45.017 E0.01602
G1 X77.739 Y-45.228 E0.02316
G1 X77.952 Y-45.251 E0.02767
G1 X79.499 Y-45.425 E0.07944
G1 X79.573 Y-44.872 E0.098
G1 X78.128 Y-44.391 E0.14866
G1 X77.912 Y-44.32 E0.15622
G1 X77.87 Y-44.544 E0.16094
M204 S4000
G1 F3600 E-2.83906
G1 F300 Z0.7
G0 F2933.3 X77.87 Y-44.544 Z0.7
G0 X77.946 Y-50.111
M204 S3000
G1 F300 Z0.2
G1 F3600 E0.18173
G1 F1200 X77.719 Y-50.133 E0.18932
G1 X77.772 Y-50.355 E0.19404
G1 X77.885 Y-50.825 E0.21012
G1 X77.934 Y-51.034 E0.21726
G1 X78.138 Y-50.97 E0.22176
G1 X78.139 Y-50.969 E0.22181
G1 X79.575 Y-50.513 E0.27192
G1 X79.502 Y-49.958 E0.29054
G1 X77.946 Y-50.111 E0.34254
M204 S4000
G1 F3600 E-2.65746
G1 F300 Z0.7
G0 F2933.3 X77.946 Y-50.111 Z0.7
G0 X82.108 Y-54.68
M204 S3000
G1 F300 Z0.2
G1 F3600 E0.36333
G1 F1200 X82.866 Y-54.167 E0.39377
G1 X82.881 Y-54.157 E0.39437
G1 X82.708 Y-53.931 E0.39781
G1 X81.934 Y-54.371 E0.42135
G1 X81.911 Y-54.384 E0.42223
G1 X79.907 Y-55.524 E0.49891
G1 X80.338 Y-56.09 E0.52257
G1 X80.339 Y-56.091 E0.52262
G1 X80.468 Y-56.261 E0.52972
G1 X80.628 Y-56.119 E0.53422
G1 X82.141 Y-54.776 E0.60151
G1 X82.116 Y-54.705 E0.60401
G1 X82.108 Y-54.68 E0.60484
M204 S4000
G1 F3600 E-2.39516
G1 F300 Z0.7
G0 F2933.3 X82.108 Y-54.68 Z0.7
G0 X86.828 Y-60.627
M204 S3000
G1 F300 Z0.2
G1 F3600 E0.62563
G1 F1200 X86.734 Y-60.835 E0.63322
G1 X86.953 Y-60.9 E0.63796
G1 X87.412 Y-61.037 E0.65389
G1 X87.618 Y-61.098 E0.66103
G1 X87.664 Y-60.888 E0.66556
G1 X87.987 Y-59.418 E0.71562
G1 X87.471 Y-59.204 E0.7342
G1 X86.828 Y-60.627 E0.78614
M204 S4000
G1 F3600 E-2.21386
G1 F300 Z0.7
G0 F2933.3 X86.828 Y-60.627 Z0.7
G0 X92.496 Y-61.404
M204 S3000
G1 F300 Z0.2
G1 F3600 E0.80692
G1 F1200 X92.495 Y-61.405 E0.80697
G1 X92.495 Y-61.632 E0.81452
G1 X92.721 Y-61.603 E0.81925
G1 X93.198 Y-61.54 E0.83526
G1 X93.411 Y-61.513 E0.8424
G1 X93.368 Y-61.303 E0.84691
G1 X93.052 Y-59.766 E0.8991
G1 X92.505 Y-59.837 E0.91745
G1 X92.496 Y-61.404 E0.96957
M204 S4000
G1 F3600 E-2.03043
G1 F300 Z0.7
G0 F2933.3 X92.496 Y-61.404 Z0.7
G0 X97.99 Y-59.809
M204 S3000
G1 F300 Z0.2
G1 F3600 E0.99035
G1 F1200 X98.081 Y-60.018 E0.99794
G1 X98.275 Y-59.9 E1.00264
G1 X98.276 Y-59.899 E1.00269
G1 X99.335 Y-59.254 E1.04393
G1 X100.197 Y-58.669 E1.07858
G1 X101.02 Y-57.891 E1.11625
G1 X101.176 Y-57.744 E1.12338
G1 X101.018 Y-57.599 E1.1279
G1 X99.905 Y-56.584 E1.178
G1 X97.638 Y-58.323 E1.27303
G1 X97.386 Y-58.428 E1.28211
G1 X97.99 Y-59.809 E1.33224
M204 S4000
G1 F3600 E-1.66776
G1 F300 Z0.7
G0 F2933.3 X97.99 Y-59.809 Z0.7
G0 X103.881 Y-53.674
M204 S3000
G1 F300 Z0.2
G1 F3600 E1.35303
G1 F1200 X104.078 Y-53.789 E1.36061
G1 X104.166 Y-53.578 E1.36536
G1 X104.631 Y-52.461 E1.4056
G1 X104.995 Y-51.452 E1.44128
G1 X105.206 Y-50.342 E1.47886
G1 X105.246 Y-50.131 E1.486
G1 X105.033 Y-50.108 E1.4905
G1 X103.486 Y-49.935 E1.54228
G1 X103.364 Y-50.859 E1.57328
G1 X102.527 Y-52.881 E1.64606
G1 X103.881 Y-53.674 E1.69825
M204 S4000
G0 F2933.3 X104.074 Y-54.25
M204 S3000
G1 F1200 X104.271 Y-54.365 E1.70584
G1 X104.359 Y-54.154 E1.71058
G1 X105.007 Y-52.597 E1.76667
G1 X105.383 Y-51.555 E1.80352
G1 X105.679 Y-49.992 E1.85643
G1 X105.719 Y-49.781 E1.86357
G1 X105.506 Y-49.758 E1.86807
G1 X103.141 Y-49.493 E1.94723
G1 X102.974 Y-50.755 E1.98957
G1 X102.024 Y-53.05 E2.07218
G1 X104.074 Y-54.25 E2.15119
M204 S4000
G1 F3600 E-0.84881
G1 F300 Z0.7
G0 F2933.3 X104.066 Y-53.818 Z0.7
G0 X100.307 Y-53.436
M204 S3000
G1 F300 Z0.2
G1 F3600 E2.17197
G1 F1200 X100.487 Y-52.999 E2.18769
G1 X100.216 Y-53.352 E2.1897
G1 X99.598 Y-54.157 E2.22346
G1 X99.196 Y-54.681 E2.24542
G1 X99.749 Y-54.274 E2.25137
G1 X99.764 Y-54.287 E2.25203
G1 X100.375 Y-53.488 E2.26957
G1 X100.382 Y-53.48 E2.26992
G1 X100.307 Y-53.436 E2.2702
M204 S4000
G1 F3600 E-0.7298
G1 F300 Z0.7
G0 F2933.3 X101.406 Y-50.855 Z0.7
M204 S3000
G1 F300 Z0.2
G1 F3600 E2.29099
G1 F1200 X101.345 Y-51.002 E2.29628
G1 X101.424 Y-50.863
G1 X101.441 Y-50.77 E2.29938
G1 X101.406 Y-50.855
M204 S4000
G1 F3600 E-0.70062
G1 F300 Z0.7
G0 F2933.3 X102.045 Y-48.163 Z0.7
M204 S3000
G1 F300 Z0.2
G1 F3600 E2.32017
G1 F1200 X102.103 Y-48.169 E2.32211
G1 X102.164 Y-47.708 E2.33757
G1 X102.168 Y-47.68 E2.33851
G1 X102.165 Y-47.654 E2.33938
G1 X101.809 Y-44.944 E2.43029
G1 X101.805 Y-44.919 E2.43114
G1 X101.794 Y-44.893 E2.43208
G1 X100.748 Y-42.366 E2.52304
G1 X100.737 Y-42.341 E2.52395
G1 X100.721 Y-42.32 E2.52483
G1 X99.058 Y-40.152 E2.6157
G1 X99.039 Y-40.128 E2.61672
G1 X99.02 Y-40.114 E2.61751
G1 X96.854 Y-38.451 E2.70833
G1 X96.834 Y-38.436 E2.70916
G1 X96.806 Y-38.425 E2.71017
G1 X94.28 Y-37.379 E2.8011
G1 X94.252 Y-37.367 E2.80211
G1 X94.229 Y-37.364 E2.80288
G1 X91.519 Y-37.007 E2.8938
G1 X91.492 Y-37.003 E2.89471
G1 X91.466 Y-37.006 E2.89558
G1 X88.755 Y-37.363 E2.98652
G1 X88.732 Y-37.367 E2.9873
G1 X88.705 Y-37.378 E2.98827
G1 X86.179 Y-38.424 E3.0792
G1 X86.15 Y-38.436 E3.08025
G1 X86.132 Y-38.45 E3.081
G1 X83.965 Y-40.112 E3.17184
G1 X83.945 Y-40.128 E3.17269
G1 X83.927 Y-40.151 E3.17366
G1 X82.264 Y-42.319 E3.26454
G1 X82.246 Y-42.342 E3.26551
G1 X82.237 Y-42.366 E3.26636
G1 X81.616 Y-43.865 E3.32033
G1 X81.674 Y-43.884 E3.32236
G1 X81.544 Y-44.586 E3.3461
G1 X81.809 Y-43.946 E3.35018
G1 X82.43 Y-42.447 E3.37837
G1 X84.093 Y-40.28 E3.42553
G1 X86.26 Y-38.618 E3.47343
G1 X88.784 Y-37.572 E3.52083
G1 X91.492 Y-37.216 E3.56852
G1 X94.2 Y-37.572 E3.6162
G1 X96.725 Y-38.618 E3.66339
G1 X98.891 Y-40.28 E3.71095
G1 X100.554 Y-42.447 E3.75831
G1 X101.6 Y-44.972 E3.80571
G1 X101.956 Y-47.68 E3.85318
G1 X101.896 Y-48.143 E3.86128
G1 X101.781 Y-49.01 E3.89037
G1 X102.045 Y-48.163 E3.89616
M204 S4000
G1 F3600 E0.89616
G1 F300 Z0.7
G0 F2933.3 X97.622 Y-56.053 Z0.7
M204 S3000
G1 F300 Z0.2
G1 F3600 E3.91695
G1 F1200 X97.448 Y-56.187 E3.92425
G1 X97.654 Y-56.094 E3.9249
G1 X98.003 Y-55.761 E3.94094
G1 X97.622 Y-56.053
M204 S4000
G1 F3600 E0.94094
G1 F300 Z0.7
G0 F2933.3 X95.24 Y-57.518 Z0.7
M204 S3000
G1 F300 Z0.2
G1 F3600 E3.96173
G1 F1200 X96.04 Y-57.026 E3.99296
G1 X95.186 Y-57.38 E3.99853
G1 X94.253 Y-57.766 E4.03211
G1 X94.236 Y-57.773 E4.03272
G1 X94.2 Y-57.788 E4.03402
G1 X93.554 Y-57.873 E4.05569
G1 X94.2 Y-57.871 E4.05789
G1 X94.295 Y-57.87
G1 X94.315 Y-57.967 E4.06119
G1 X94.331 Y-57.961
G1 X95.265 Y-57.574 E4.07884
G1 X95.24 Y-57.518 E4.08088
M204 S4000
G1 F3600 E1.08088
G1 F300 Z0.7
G0 F2933.3 X93.369 Y-59.32 Z0.7
M204 S3000
G1 F300 Z0.2
G1 F3600 E4.10167
G1 F1200 X92.107 Y-59.486 E4.144
G1 X92.093 Y-61.86 E4.22296
G1 X92.092 Y-61.861 E4.22301
G1 X92.092 Y-62.088 E4.23056
G1 X92.318 Y-62.059 E4.23529
G1 X93.676 Y-61.882 E4.28084
G1 X93.889 Y-61.855 E4.28798
G1 X93.846 Y-61.645 E4.2925
G1 X93.369 Y-59.32 E4.37144
M204 S4000
G1 F3600 E1.37144
G1 F300 Z0.7
G0 F2933.3 X93.033 Y-59.666 Z0.7
G0 X90.915 Y-58.192
M204 S3000
G1 F300 Z0.2
G1 F3600 E4.39222
G1 F1200 X91.381 Y-58.129 E4.40786
G1 X90.932 Y-58.07 E4.41003
G1 X89.937 Y-57.94 E4.4434
G1 X89.281 Y-57.853 E4.46541
G1 X89.911 Y-58.127 E4.47128
G1 X89.906 Y-58.147 E4.47196
G1 X90.904 Y-58.278 E4.4895
G1 X90.915 Y-58.28 E4.48987
G1 X90.915 Y-58.192 E4.49018
M204 S4000
G1 F3600 E1.49018
G1 F300 Z0.7
G0 F2933.3 X88.416 Y-59.162 Z0.7
M204 S3000
G1 F300 Z0.2
G1 F3600 E4.51097
G1 F1200 X87.265 Y-58.686 E4.55239
G1 X86.274 Y-60.88 E4.63246
G1 X86.181 Y-61.087 E4.64001
G1 X86.398 Y-61.151 E4.6447
G1 X86.399 Y-61.152 E4.64475
G1 X87.917 Y-61.604 E4.69743
G1 X88.452 Y-59.167 E4.78041
G1 X88.416 Y-59.162 E4.78162
M204 S4000
G1 F3600 E1.78162
G1 F300 Z0.7
G0 F2933.3 X87.975 Y-59.476 Z0.7
G0 X86.689 Y-57.048
M204 S3000
G1 F300 Z0.2
G1 F3600 E4.80241
G1 F1200 X87.76 Y-57.364 E4.83955
G1 X86.731 Y-56.938 E4.84495
G1 X86.26 Y-56.742 E4.86192
G1 X85.889 Y-56.458 E4.87746
G1 X85.199 Y-55.928 E4.9064
G1 X85.795 Y-56.579 E4.91225
G1 X85.762 Y-56.625 E4.91414
G1 X86.133 Y-56.909 E4.92227
G1 X86.153 Y-56.925 E4.92312
G1 X86.178 Y-56.935 E4.92402
G1 X86.651 Y-57.131 E4.93291
G1 X86.689 Y-57.048 E4.93595
M204 S4000
G1 F3600 E1.93595
G1 F300 Z0.7
G0 F2933.3 X83.983 Y-59.04 Z0.7
M204 S3000
G1 F300 Z0.2
G1 F3600 E4.95673
G1 F1200 X83.506 Y-59.687 E4.98347
G1 X84.351 Y-60.152 E5.01555
G1 X83.983 Y-59.04 E5.05451
M204 S4000
G1 F3600 E2.05451
G1 F300 Z0.7
G0 F2933.3 X83.716 Y-59.503 Z0.7
G0 X82.586 Y-54.84
M204 S3000
G1 F300 Z0.2
G1 F3600 E5.07529
G1 F1200 X83.229 Y-54.405 E5.10112
G1 X83.345 Y-54.327 E5.10576
G1 X83.839 Y-54.748 E5.12735
G1 X83.453 Y-54.245 E5.1308
G1 X83.368 Y-54.134 E5.13433
G1 X82.798 Y-53.391 E5.16547
G1 X82.43 Y-52.912 E5.18556
G1 X81.829 Y-51.46 E5.23783
G1 X81.576 Y-50.85 E5.25979
G1 X81.652 Y-51.533 E5.26576
G1 X81.635 Y-51.538 E5.26635
G1 X82.237 Y-52.992 E5.29364
G1 X82.246 Y-53.014 E5.29443
G1 X82.267 Y-53.041 E5.29529
G1 X82.642 Y-53.509 E5.30528
G1 X79.51 Y-55.29 E5.42511
G1 X79.312 Y-55.402 E5.43268
G1 X79.45 Y-55.583 E5.43739
G1 X80.282 Y-56.675 E5.48305
G1 X80.283 Y-56.676 E5.4831
G1 X80.412 Y-56.846 E5.49019
G1 X80.572 Y-56.704 E5.49469
G1 X82.606 Y-54.898 E5.58516
G1 X82.586 Y-54.84 E5.58721
M204 S4000
G1 F3600 E2.58721
G1 F300 Z0.7
G0 F2933.3 X82.207 Y-54.715 Z0.7
G0 X80.01 Y-50.755
M204 S3000
G1 F300 Z0.2
G1 F3600 E5.60799
G1 F1200 X79.848 Y-49.522 E5.64936
G1 X77.451 Y-49.758 E5.72947
G1 X77.224 Y-49.78 E5.73705
G1 X77.277 Y-50.002 E5.74178
G1 X77.645 Y-51.545 E5.79454
G1 X80.024 Y-50.79 E5.87755
G1 X80.01 Y-50.755 E5.87881
M204 S4000
G1 F3600 E2.87881
G1 F300 Z0.7
G0 F2933.3 X79.521 Y-50.531 Z0.7
G0 X80.977 Y-48.204
M204 S3000
G1 F300 Z0.2
G1 F3600 E5.89959
G1 F1200 X81.239 Y-49.288 E5.93669
G1 X81.095 Y-48.185 E5.94224
G1 X81.028 Y-47.68 E5.95918
G1 X81.088 Y-47.216 E5.97474
G1 X81.203 Y-46.348 E6.00386
G1 X80.939 Y-47.196 E6.00966
G1 X80.881 Y-47.19 E6.0116
G1 X80.82 Y-47.652 E6.01967
G1 X80.816 Y-47.68 E6.02061
G1 X80.819 Y-47.706 E6.02127
G1 X80.886 Y-48.213 E6.03022
G1 X80.977 Y-48.204 E6.03326
M204 S4000
G1 F3600 E3.03326
G1 F300 Z0.7
G0 F2933.3 X77.479 Y-45.601 Z0.7
M204 S3000
G1 F300 Z0.2
G1 F3600 E6.05405
G1 F1200 X79.843 Y-45.866 E6.13317
G1 X80.013 Y-44.596 E6.17579
G1 X77.82 Y-43.867 E6.25265
G1 X77.604 Y-43.796 E6.26021
G1 X77.562 Y-44.02 E6.26494
G1 X77.305 Y-45.366 E6.31051
G1 X77.265 Y-45.578 E6.31769
G1 X77.479 Y-45.601 E6.32222
M204 S4000
G1 F3600 E3.32222
G1 F300 Z0.7
G0 F2933.3 X77.736 Y-45.245 Z0.7
G0 X97.043 Y-58.138
M204 S3000
G1 F300 Z0.2
G1 F3600 E6.34301
G1 F1200 X96.856 Y-58.215 E6.34973
G1 X96.937 Y-58.401 E6.35407
G1 X97.807 Y-60.39 E6.42627
G1 X97.898 Y-60.599 E6.43385
G1 X98.092 Y-60.481 E6.43856
G1 X98.093 Y-60.48 E6.43861
G1 X99.551 Y-59.591 E6.49541
G1 X100.449 Y-58.982 E6.53149
G1 X101.608 Y-57.886 E6.58455
G1 X101.609 Y-57.885 E6.5846
G1 X101.764 Y-57.739 E6.59168
G1 X101.606 Y-57.595 E6.59618
G1 X99.92 Y-56.056 E6.6721
G1 X99.898 Y-56.085 E6.67331
G1 X97.436 Y-57.974 E6.77652
G1 X97.043 Y-58.138 E6.79069
M204 S4000
G0 F2933.3 X97.234 Y-57.625
M204 S3000
;TYPE:WALL-OUTER
G1 F1200 X96.513 Y-57.924 E6.81665
G1 X96.326 Y-58.001 E6.82338
G1 X96.407 Y-58.187 E6.82771
G1 X97.688 Y-61.119 E6.93413
G1 X98.083 Y-60.955 E6.94835
G1 X99.767 Y-59.928 E7.01396
G1 X100.701 Y-59.294 E7.0515
G1 X102.092 Y-57.979 E7.11517
G1 X102.127 Y-57.946 E7.11677
G1 X102.342 Y-57.725 E7.12703
G1 X102.306 Y-57.692 E7.12851
G1 X100.028 Y-55.612 E7.23111
G1 X99.867 Y-55.466 E7.23834
G1 X99.735 Y-55.639 E7.24291
G1 X99.612 Y-55.8 E7.24965
G1 X97.234 Y-57.625 E7.34935
M204 S4000
G0 F2933.3 X97.05 Y-57.701
G0 X96.523 Y-56.393
M204 S3000
G1 F1200 X94.096 Y-57.398 E7.43672
G1 X91.492 Y-57.741 E7.52408
G1 X88.888 Y-57.398 E7.61143
G1 X86.462 Y-56.393 E7.69877
G1 X84.378 Y-54.794 E7.78614
G1 X82.779 Y-52.71 E7.8735
G1 X81.774 Y-50.283 E7.96087
G1 X81.431 Y-47.68 E8.0482
G1 X81.774 Y-45.076 E8.13556
G1 X82.779 Y-42.649 E8.22293
G1 X84.378 Y-40.565 E8.31029
G1 X86.462 Y-38.967 E8.39764
G1 X88.888 Y-37.962 E8.48498
G1 X91.492 Y-37.619 E8.57233
G1 X94.096 Y-37.962 E8.65969
G1 X96.523 Y-38.967 E8.74706
G1 X98.606 Y-40.565 E8.83438
G1 X100.205 Y-42.649 E8.92175
G1 X101.21 Y-45.076 E9.00912
G1 X101.553 Y-47.68 E9.09647
G1 X101.21 Y-50.283 E9.1838
G1 X100.205 Y-52.71 E9.27117
G1 X98.606 Y-54.794 E9.35853
G1 X96.523 Y-56.393 E9.44587
M204 S4000
G0 F2933.3 X96.339 Y-56.469
G0 X95.747 Y-57.676
M204 S3000
G1 F1200 X97.466 Y-56.618 E9.51301
G1 X97.882 Y-56.429 E9.52821
G1 X99.194 Y-55.18 E9.58846
G1 X99.722 Y-54.791 E9.61027
G1 X99.816 Y-54.877 E9.61451
G1 X100.961 Y-53.383 E9.67711
G1 X100.976 Y-53.363 E9.67794
G1 X100.81 Y-53.266 E9.67952
G1 X101.58 Y-51.399 E9.74669
G1 X101.805 Y-51.002 E9.76187
G1 X102.134 Y-49.222 E9.82207
G1 X102.329 Y-48.596 E9.84388
G1 X102.449 Y-48.609 E9.8479
G1 X102.572 Y-47.68 E9.87906
G1 X102.195 Y-44.815 E9.97518
G1 X101.087 Y-42.14 E10.07148
G1 X99.326 Y-39.845 E10.16769
G1 X97.032 Y-38.085 E10.26386
G1 X94.357 Y-36.977 E10.36016
G1 X91.492 Y-36.599 E10.45628
G1 X88.627 Y-36.977 E10.55239
G1 X85.952 Y-38.085 E10.64869
G1 X83.658 Y-39.845 E10.74486
G1 X81.896 Y-42.141 E10.84112
G1 X81.082 Y-44.108 E10.91192
G1 X81.217 Y-44.153 E10.91666
G1 X80.85 Y-46.137 E10.98376
G1 X80.655 Y-46.763 E11.00557
G1 X80.535 Y-46.75 E11.00959
G1 X80.412 Y-47.68 E11.04079
G1 X80.54 Y-48.65 E11.07333
G1 X80.67 Y-48.637 E11.07768
G1 X81.145 Y-50.599 E11.14482
G1 X81.218 Y-51.251 E11.16664
G1 X81.098 Y-51.289 E11.17082
G1 X81.897 Y-53.218 E11.24027
G1 X82.037 Y-53.393 E11.24772
G1 X82.007 Y-53.41
G1 X78.774 Y-55.247 E11.3714
G1 X78.976 Y-55.621 E11.38554
G1 X80.109 Y-57.108 E11.44772
G1 X80.237 Y-57.262 E11.45438
G1 X80.368 Y-57.42 E11.4612
G1 X80.522 Y-57.284 E11.46559
G1 X83.072 Y-55.019 E11.57902
G1 X83.065 Y-54.999 E11.57973
G1 X83.317 Y-54.829 E11.58984
G1 X84.837 Y-56.124 E11.65626
G1 X85.279 Y-56.607 E11.67803
G1 X85.208 Y-56.704 E11.68203
G1 X85.952 Y-57.275 E11.71322
G1 X86.856 Y-57.649 E11.74576
G1 X86.91 Y-57.53 E11.75011
G1 X88.846 Y-58.101 E11.81724
G1 X89.448 Y-58.362 E11.83907
G1 X89.42 Y-58.487 E11.84333
G1 X89.43 Y-58.488
G1 X91.288 Y-58.732 E11.90565
G1 X91.312 Y-58.736 E11.90646
G1 X91.313 Y-58.542 E11.90804
G1 X93.314 Y-58.274 E11.97519
G1 X93.97 Y-58.271 E11.997
G1 X93.998 Y-58.406 E12.00159
G1 X94.003 Y-58.43 E12.00241
G1 X94.357 Y-58.383 E12.01428
G1 X94.38 Y-58.374 E12.0151
G1 X95.796 Y-57.787 E12.06609
G1 X95.747 Y-57.676 E12.07012
M204 S4000
G0 F2933.3 X95.917 Y-57.572
G1 F3600 E9.07012
G1 F300 Z0.7
G0 F2933.3 X93.686 Y-58.874 Z0.7
M204 S3000
G1 F300 Z0.2
G1 F3600 E12.09091
G1 F1200 X91.709 Y-59.134 E12.15723
G1 X91.687 Y-62.477 E12.26842
G1 X92.114 Y-62.489 E12.28263
G1 X94.013 Y-62.242 E12.34632
G1 X94.061 Y-62.236 E12.34793
G1 X94.365 Y-62.184 E12.35819
G1 X94.356 Y-62.136 E12.35968
G1 X93.686 Y-58.874 E12.47044
M204 S4000
G0 F2933.3 X93.488 Y-58.9
G1 F3600 E9.47044
G1 F300 Z0.7
G0 F2933.3 X93.033 Y-59.666 Z0.7
G0 X88.722 Y-58.8
M204 S3000
G1 F300 Z0.2
G1 F3600 E12.49123
G1 F1200 X88.721 Y-58.799 E12.49127
G1 X88.52 Y-58.772 E12.49802
G1 X87.061 Y-58.168 E12.55054
G1 X85.651 Y-61.278 E12.66411
G1 X86.036 Y-61.461 E12.67829
G1 X87.876 Y-62.009 E12.74214
G1 X87.926 Y-62.024 E12.74388
G1 X88.218 Y-62.098 E12.7539
G1 X88.229 Y-62.047 E12.75548
G1 X88.89 Y-59.038 E12.85794
G1 X88.936 Y-58.827 E12.86513
G1 X88.722 Y-58.8 E12.86965
M204 S4000
G0 F2933.3 X88.721 Y-58.799
G0 X88.523 Y-58.773
G1 F3600 E9.86965
G1 F300 Z0.7
G0 F2933.3 X87.998 Y-59.371 Z0.7
G0 X84.24 Y-58.545
M204 S3000
G1 F300 Z0.2
G1 F3600 E12.89043
G1 F1200 X84.12 Y-58.18 E12.90321
G1 X83.892 Y-58.49 E12.91032
G1 X82.952 Y-59.766 E12.96303
G1 X83.293 Y-60.028 E12.97734
G1 X84.589 Y-60.738 E13.02649
G1 X84.928 Y-60.924 E13.03935
G1 X85.048 Y-60.983 E13.0438
G1 X85.019 Y-60.895
G1 X84.898 Y-60.528 E13.05208
G1 X84.241 Y-58.546 E13.12153
G1 X84.24 Y-58.545 E13.12158
M204 S4000
G0 F2933.3 X84.178 Y-58.355
G0 X84.485 Y-57.012
M204 S3000
G1 F1200 X84.653 Y-56.783 E13.13103
G1 X84.397 Y-56.586 E13.14177
G1 X84.396 Y-56.585 E13.14182
G1 X83.881 Y-56.19 E13.1634
