;FLAVOR:Marlin
;TIME:308
;Filament used: 0.0404569m
;Layer height: 0.1
;Generated with Cura_SteamEngine 1.2.3
M104 S230
M109 S230
G90
G28
M132 X Y Z A
G1 Z100 F3300
G1 X-110.5 Y-74 F6000
M6 T0
M907 X100 Y100 Z60 A100
G1 Z0.6 F3300
G4 P2000
M108 T0

;LAYER_COUNT:36
;LAYER:0
M107
M204 S4000
G0 F2933.3 X94.151 Y45.533 Z0.2
M204 S3000
;TYPE:WALL-INNER
G1 F1200 X94.312 Y45.377 E0.00746
G1 X94.597 Y45.41 E0.017
G1 X94.841 Y45.44 E0.02518
G1 X94.561 Y45.711 E0.03013
G1 X94.554 Y46.1 E0.04307
G1 X94.367 Y45.942 E0.04316
G1 X94.148 Y45.757 E0.0527
G1 X94.151 Y45.533 E0.06015
M204 S4000
G0 F2933.3 X94.958 Y45.883
M204 S3000
;TYPE:WALL-OUTER
G1 F1200 X94.946 Y46.57 E0.083
G1 X94.943 Y46.807 E0.09089
G1 X94.93 Y47.581 E0.11663
G1 X94.926 Y47.82 E0.12458
G1 X94.918 Y48.288 E0.14015
G1 X94.03 Y48.639 E0.17191
G1 X93.827 Y48.719 E0.17917
G1 X93.699 Y48.77 E0.18375
G1 X93.704 Y48.406 E0.18919
G1 X93.876 Y48.271 E0.19588
G1 X94.571 Y47.725 E0.22528
G1 X94.758 Y47.578 E0.23114
G1 X94.769 Y46.804 E0.24229
G1 X94.588 Y46.652 E0.24814
G1 X93.745 Y45.941 E0.28482
G1 X93.754 Y45.362 E0.30408
G1 X94.171 Y44.958 E0.32339
G1 X95.266 Y45.088 E0.36007
G1 X95.502 Y45.116 E0.36797
G1 X96.059 Y44.575 E0.3938
G1 X96.039 Y44.339 E0.40168
G1 X95.962 Y43.46 E0.43102
G1 X95.944 Y43.243 E0.43826
G1 X96.206 Y42.989 E0.4504
G1 X96.257 Y43.119
G1 X96.337 Y43.321 E0.45706
G1 X96.688 Y44.209 E0.48881
G1 X96.351 Y44.535 E0.50441
G1 X96.181 Y44.7 E0.51027
G1 X95.623 Y45.24 E0.52147
G1 X95.452 Y45.405 E0.52735
G1 X94.958 Y45.883 E0.55021
M204 S4000
G0 F2933.3 X94.955 Y46.083
G0 X94.793 Y46.427
M204 S3000
;TYPE:SKIN
G1 F1200 X94.598 Y46.232 E0.5548
M204 S4000
G0 F2933.3 X95.037 Y45.539
G1 F1200 X95.099 Y45.318 E0.55789
G0 F2933.3 X96.265 Y44.222
G1 F1200 X96.323 Y43.997 E0.56413
G1 X96.224 Y43.615 E0.57066
G1 F3600 E-2.42934
G1 F300 Z0.7
G0 F2933.3 X94.673 Y48.004 Z0.7
G1 F300 Z0.2
G1 F3600 E0.59144
G1 F1200 X94.523 Y48.137 E0.59595
G1 X94.342 Y48.239 E0.60011
G1 X94.162 Y48.341 E0.60322
G1 F3600 E-2.39678
G1 F300 Z0.7
G0 F2933.3 X96.568 Y50.787 Z0.7
M204 S3000
;TYPE:WALL-INNER
G1 F300 Z0.2
G1 F3600 E0.62401
G1 F1200 X96.957 Y50.794 E0.63695
G1 X96.799 Y50.981 E0.63704
G1 X96.614 Y51.2 E0.64658
G1 X96.39 Y51.197 E0.65403
G1 X96.234 Y51.035 E0.66151
G1 X96.267 Y50.751 E0.67102
G1 X96.297 Y50.507 E0.67919
G1 X96.568 Y50.787 E0.68415
M204 S4000
G0 F2933.3 X96.74 Y50.39
M204 S3000
;TYPE:WALL-OUTER
G1 F1200 X97.425 Y50.402 E0.70694
G1 X97.663 Y50.405 E0.71485
G1 X98.437 Y50.418 E0.7406
G1 X98.674 Y50.422 E0.74848
G1 X99.144 Y50.43 E0.76412
G1 X99.495 Y51.319 E0.79591
G1 X99.575 Y51.521 E0.80313
G1 X99.626 Y51.65 E0.80775
G1 X99.262 Y51.644 E0.81318
G1 X99.128 Y51.473 E0.81984
G1 X98.58 Y50.778 E0.84927
G1 X98.434 Y50.592 E0.85513
G1 X97.66 Y50.578 E0.8663
G1 X97.507 Y50.76 E0.87217
G1 X96.798 Y51.603 E0.90881
G1 X96.218 Y51.595 E0.9281
G1 X95.814 Y51.177 E0.94743
G1 X95.944 Y50.083 E0.98408
G1 X95.972 Y49.847 E0.99198
G1 X95.432 Y49.288 E1.01783
G1 X95.195 Y49.309 E1.02574
G1 X94.314 Y49.387 E1.05516
G1 X94.099 Y49.405 E1.06234
G1 X93.846 Y49.142 E1.07447
G1 X93.974 Y49.092
G1 X94.174 Y49.013 E1.08107
G1 X95.065 Y48.66 E1.11294
G1 X95.391 Y48.996 E1.12852
G1 X95.556 Y49.167 E1.13439
G1 X96.096 Y49.725 E1.14557
G1 X96.261 Y49.896 E1.15144
G1 X96.74 Y50.39 E1.17433
M204 S4000
G0 F2933.3 X96.94 Y50.393
G0 X97.141 Y50.755
G1 F1200 X97.291 Y50.622 E1.17806
G0 F2933.3 X96.282 Y50.178
G1 F1200 X96.143 Y50.323 E1.18287
G0 F2933.3 X95.101 Y48.998
G1 F1200 X94.878 Y49.057 E1.18863
G1 X94.646 Y49.109 E1.19327
G1 X94.415 Y49.16 E1.19654
G1 F3600 E-1.80346
G1 F300 Z0.7
G0 F2933.3 X98.984 Y50.9 Z0.7
G1 F300 Z0.2
G1 F3600 E1.21733
G1 F1200 X99.021 Y50.655 E1.22596
G0 F2933.3 X100.04 Y50.332
G0 X100.144 Y49.916
M204 S3000
G1 F1200 X100.164 Y50.153 E1.23387
G1 X100.242 Y51.033 E1.26325
G1 X100.261 Y51.249 E1.27047
G1 X99.998 Y51.503 E1.28263
G1 X99.947 Y51.374
G1 X99.868 Y51.173 E1.28925
G1 X99.516 Y50.283 E1.32108
G1 X99.852 Y49.957 E1.33665
G1 X100.023 Y49.792 E1.34252
G1 X100.582 Y49.251 E1.3684
G1 X100.753 Y49.086 E1.3763
G1 X101.09 Y48.759 E1.39192
G1 X101.965 Y49.139 E1.42365
G1 X102.167 Y49.226 E1.43096
G1 X102.295 Y49.282 E1.43561
G1 X102.033 Y49.534 E1.44072
G1 X101.814 Y49.508 E1.44747
G1 X100.939 Y49.404 E1.47677
G1 X100.703 Y49.376 E1.48265
G1 X100.144 Y49.916 E1.49382
M204 S4000
G0 F2933.3 X100.16 Y50.116
G0 X99.959 Y50.179
G1 F1200 X99.901 Y50.404 E1.49846
G1 X99.936 Y50.721 E1.5049
G0 F2933.3 X100.962 Y49.202
G1 F1200 X101.195 Y49.152 E1.50952
G1 X101.52 Y49.194 E1.51617
G0 F2933.3 X101.555 Y49.397
G0 X101.434 Y47.688
M204 S3000
G1 F1200 X101.615 Y47.84 E1.52403
G1 X102.292 Y48.41 E1.55346
G1 X102.459 Y48.55 E1.56071
G1 X102.453 Y48.914 E1.57282
G1 X102.326 Y48.859
G1 X102.125 Y48.772 E1.57953
G1 X101.249 Y48.392 E1.61129
G1 X101.257 Y47.922 E1.62692
G1 X101.26 Y47.685 E1.6328
G1 X101.274 Y46.911 E1.65855
G1 X101.278 Y46.674 E1.66643
G1 X101.286 Y46.204 E1.68207
G1 X102.175 Y45.853 E1.71386
G1 X102.377 Y45.773 E1.72108
G1 X102.506 Y45.722 E1.7257
G1 X102.5 Y46.086 E1.73113
G1 X102.329 Y46.22 E1.73778
G1 X101.634 Y46.768 E1.76722
G1 X101.448 Y46.914 E1.77308
G1 X101.434 Y47.688 E1.78428
M204 S4000
G0 F2933.3 X101.587 Y47.816
G0 X101.713 Y48.256
G1 F1200 X101.458 Y48.284 E1.79253
G0 F2933.3 X101.479 Y46.608
G1 F1200 X101.57 Y46.416 E1.79628
G1 X101.751 Y46.314 E1.80108
G1 X101.931 Y46.211 E1.80484
G1 X102.112 Y46.109 E1.80755
G0 F2933.3 X102.141 Y46.297
G1 F3600 E-1.19245
G1 F300 Z0.7
G0 F2933.3 X102.05 Y46.332 Z0.7
G0 X99.637 Y43.705
M204 S3000
;TYPE:WALL-INNER
G1 F300 Z0.2
G1 F3600 E1.82834
G1 F1200 X99.248 Y43.698 E1.84128
G1 X99.406 Y43.511 E1.84137
G1 X99.591 Y43.292 E1.8509
G1 X99.815 Y43.295 E1.85835
G1 X99.971 Y43.457 E1.86583
G1 X99.938 Y43.741 E1.87534
G1 X99.908 Y43.985 E1.88352
G1 X99.637 Y43.705 E1.88848
M204 S4000
G0 F2933.3 X99.465 Y44.102
M204 S3000
;TYPE:WALL-OUTER
G1 F1200 X98.78 Y44.09 E1.91126
G1 X98.542 Y44.087 E1.91918
G1 X97.767 Y44.074 E1.94496
G1 X97.53 Y44.07 E1.95285
G1 X97.06 Y44.062 E1.96848
G1 X96.71 Y43.174 E2.00023
G1 X96.63 Y42.972 E2.00745
G1 X96.578 Y42.842 E2.01211
G1 X96.943 Y42.848 E2.01757
G1 X97.077 Y43.019 E2.02422
G1 X97.624 Y43.714 E2.05364
G1 X97.77 Y43.9 E2.05949
G1 X98.545 Y43.914 E2.07067
G1 X98.698 Y43.732 E2.07655
G1 X99.407 Y42.889 E2.11318
G1 X99.987 Y42.897 E2.13248
G1 X100.391 Y43.315 E2.15181
G1 X100.26 Y44.409 E2.18846
G1 X100.232 Y44.645 E2.19636
G1 X100.772 Y45.204 E2.22221
G1 X101.009 Y45.183 E2.23013
G1 X101.89 Y45.105 E2.25954
G1 X102.105 Y45.087 E2.26672
G1 X102.359 Y45.35 E2.27888
G1 X102.23 Y45.401
G1 X102.03 Y45.48 E2.28547
G1 X101.139 Y45.832 E2.31734
G1 X100.813 Y45.496 E2.33291
G1 X100.648 Y45.325 E2.33878
G1 X100.108 Y44.767 E2.34996
G1 X99.943 Y44.596 E2.35583
G1 X99.465 Y44.102 E2.3787
M204 S4000
G0 F2933.3 X99.265 Y44.099
G0 X98.993 Y43.838
G1 F1200 X99.04 Y43.602 E2.3815
G0 F2933.3 X99.985 Y44.265
G1 F1200 X100.107 Y44.104 E2.38498
G0 F2933.3 X101.184 Y45.464
G1 F1200 X101.415 Y45.413 E2.39041
G1 X101.647 Y45.362 E2.39449
G1 X101.864 Y45.295 E2.39689
G1 F3600 E-0.60311
G1 F300 Z0.7
G0 F2933.3 X102.025 Y45.951 Z0.7
G0 X97.201 Y43.744
G1 F300 Z0.2
G1 F3600 E2.41768
G1 F1200 X97.115 Y43.375 E2.4265
G1 F3600 E-0.5735
G1 F300 Z0.7
G0 F2933.3 X94.175 Y45.544 Z0.7
;TIME_ELAPSED:9.867950
;LAYER:1
M106 S85
M204 S4333
G0 F4155.6 X94.175 Y45.544 Z0.8
M204 S3000
;TYPE:WALL-INNER
G1 F300 Z0.3
G1 F3600 E2.44729
G1 F1638.4 X94.334 Y45.39 E2.45097
G1 X94.611 Y45.423 E2.45561
G1 X94.851 Y45.452 E2.45963
G1 X94.576 Y45.718 E2.46199
G1 X94.57 Y46.099 E2.46832
G1 X94.387 Y45.945
G1 X94.172 Y45.764 E2.473
G1 X94.175 Y45.544 E2.47666
M204 S4333
G1 F3600 E-0.52334
G1 F300 Z0.8
G0 F4155.6 X94.209 Y45.559 Z0.8
G0 X96.69 Y43.672
M204 S3000
G1 F300 Z0.3
G1 F3600 E2.49744
G1 F1638.4 X96.416 Y43.937 E2.50378
G1 X96.396 Y43.697
G1 X96.372 Y43.418 E2.50844
G1 X96.53 Y43.265 E2.5121
G1 X96.751 Y43.269 E2.51577
G1 X96.923 Y43.488 E2.5204
G1 X97.073 Y43.678 E2.52443
G1 X96.69 Y43.672 E2.52679
M204 S4333
G1 F3600 E-0.47321
G1 F300 Z0.8
G0 F4155.6 X96.798 Y43.563 Z0.8
G0 X99.63 Y43.72
M204 S3000
G1 F300 Z0.3
G1 F3600 E2.54757
G1 F1638.4 X99.249 Y43.714 E2.55391
G1 X99.403 Y43.53
G1 X99.583 Y43.315 E2.55857
G1 X99.805 Y43.318 E2.56227
G1 X99.958 Y43.477 E2.56594
G1 X99.925 Y43.755 E2.57059
G1 X99.896 Y43.995 E2.57461
G1 X99.63 Y43.72 E2.57697
M204 S4333
G1 F3600 E-0.42303
G1 F300 Z0.8
G0 F4155.6 X99.525 Y43.606 Z0.8
G0 X101.676 Y45.834
M204 S3000
G1 F300 Z0.3
G1 F3600 E2.59776
G1 F1638.4 X101.41 Y45.56 E2.60411
G1 X101.65 Y45.54
G1 X101.93 Y45.515 E2.60878
G1 X102.083 Y45.673 E2.61244
G1 X102.079 Y45.894 E2.61611
G1 X101.86 Y46.066 E2.62075
G1 X101.67 Y46.217 E2.62478
G1 X101.676 Y45.834 E2.62713
M204 S4333
G0 F4155.6 X101.273 Y45.993
M204 S3000
;TYPE:WALL-OUTER
G1 F1274.3 X100.801 Y45.506 E2.63841
G1 X100.635 Y45.334 E2.64239
G1 X100.098 Y44.778 E2.65524
G1 X99.931 Y44.605 E2.65924
G1 X99.458 Y44.117 E2.67054
G1 X98.781 Y44.106 E2.6818
G1 X98.541 Y44.103 E2.68579
G1 X97.767 Y44.09 E2.69867
G1 X97.528 Y44.087 E2.70264
G1 X96.849 Y44.075 E2.71394
G1 X96.363 Y44.546 E2.72519
G1 X96.19 Y44.713 E2.72919
G1 X95.635 Y45.25 E2.74203
G1 X95.461 Y45.418 E2.74605
G1 X94.973 Y45.89 E2.75734
G1 X94.962 Y46.568 E2.76862
G1 X94.959 Y46.808 E2.77261
G1 X94.946 Y47.58 E2.78545
G1 X94.942 Y47.821 E2.78946
G1 X94.934 Y48.282 E2.79713
G1 X94.067 Y48.624 E2.81263
G1 X93.849 Y48.71 E2.81653
G1 X93.722 Y48.76 E2.8188
G1 X93.728 Y48.401 E2.82143
G1 X93.912 Y48.256 E2.82499
G1 X94.587 Y47.726 E2.83926
G1 X94.776 Y47.577 E2.84222
G1 X94.787 Y46.806 E2.8477
G1 X94.604 Y46.652 E2.85065
G1 X93.769 Y45.948 E2.86881
G1 X93.778 Y45.373 E2.87838
G1 X94.193 Y44.971 E2.88799
G1 X95.276 Y45.1 E2.90612
G1 X95.516 Y45.128 E2.90909
G1 X96.07 Y44.591 E2.91456
G1 X96.05 Y44.351 E2.91753
G1 X95.957 Y43.264 E2.93567
G1 X96.372 Y42.862 E2.94528
G1 X96.948 Y42.872 E2.95486
G1 X97.623 Y43.731 E2.97303
G1 X97.77 Y43.918 E2.97596
G1 X98.543 Y43.932 E2.98147
G1 X98.697 Y43.749 E2.98442
G1 X99.4 Y42.912 E3.0026
G1 X99.976 Y42.921 E3.01218
G1 X100.378 Y43.336 E3.02178
G1 X100.248 Y44.42 E3.03994
G1 X100.22 Y44.659 E3.0429
G1 X100.757 Y45.214 E3.04838
G1 X100.996 Y45.194 E3.05134
G1 X102.084 Y45.1 E3.0695
G1 X102.486 Y45.515 E3.07911
G1 X102.476 Y46.091 E3.08869
G1 X101.617 Y46.768 E3.10688
G1 X101.43 Y46.915 E3.11083
G1 X101.416 Y47.686 E3.12366
G1 X101.6 Y47.841 E3.12766
G1 X102.258 Y48.395 E3.14196
G1 X102.435 Y48.544 E3.14581
G1 X102.43 Y48.904 E3.1518
G1 X102.304 Y48.85
G1 X102.092 Y48.758 E3.15532
G1 X101.234 Y48.385 E3.17088
G1 X101.242 Y47.925 E3.17853
G1 X101.245 Y47.684 E3.1815
G1 X101.258 Y46.912 E3.18701
G1 X101.261 Y46.673 E3.18996
G1 X101.273 Y45.993 E3.20128
M204 S4333
G0 F4155.6 X101.134 Y45.85
G0 X101.212 Y45.582
G1 F1137.7 X101.096 Y45.415 E3.20299
G0 F4155.6 X101.505 Y46.42
G1 F1137.7 X101.752 Y46.456 E3.20434
G0 F4155.6 X101.489 Y48.133
G1 F1137.7 X101.646 Y48.258 E3.20663
G1 X101.822 Y48.367 E3.20862
G1 X101.997 Y48.473 E3.21009
G1 F3600 E0.21009
G1 F300 Z0.8
G0 F4155.6 X99.9 Y44.349 Z0.8
M204 S3000
;TYPE:SKIN
G1 F300 Z0.3
G1 F3600 E3.23088
G1 F1137.7 X100.126 Y44.123 E3.23354
M204 S4333
G0 F4155.6 X99.176 Y43.941
G1 F1137.7 X98.993 Y43.842 E3.235
G0 F4155.6 X97.417 Y43.721
M204 S3000
G1 F1137.7 X97.211 Y43.926 E3.23742
M204 S4333
G0 F4155.6 X96.336 Y44.235
G1 F1137.7 X96.222 Y44.066 E3.23941
G0 F4155.6 X95.167 Y45.405
G1 F1137.7 X95.008 Y45.28 E3.24163
G0 F4155.6 X94.563 Y46.291
G1 F1137.7 X94.729 Y46.408 E3.24335
G0 F4155.6 X94.42 Y48.131
G1 F1137.7 X94.681 Y48.154 E3.24815
G0 F4155.6 X94.176 Y45.731
G1 F3600 E0.24815
G1 F300 Z0.8
G0 F4155.6 X94.176 Y45.73 Z0.8
G0 X96.575 Y50.772
M204 S3000
;TYPE:WALL-INNER
G1 F300 Z0.3
G1 F3600 E3.26893
G1 F1638.4 X96.956 Y50.778 E3.27527
G1 X96.802 Y50.962
G1 X96.621 Y51.177 E3.27994
G1 X96.4 Y51.174 E3.28362
G1 X96.246 Y51.015 E3.2873
G1 X96.279 Y50.737 E3.29196
G1 X96.308 Y50.496 E3.29599
G1 X96.575 Y50.772 E3.29837
M204 S4333
G1 F3600 E0.29837
G1 F300 Z0.8
G0 F4155.6 X96.678 Y50.886 Z0.8
G0 X99.514 Y50.82
M204 S3000
G1 F300 Z0.3
G1 F3600 E3.31916
G1 F1638.4 X99.788 Y50.555 E3.3255
G1 X99.808 Y50.794
G1 X99.833 Y51.074 E3.33017
G1 X99.675 Y51.227 E3.33383
G1 X99.454 Y51.223 E3.33751
G1 X99.282 Y51.004 E3.34214
G1 X99.131 Y50.814 E3.34617
G1 X99.514 Y50.82 E3.34853
M204 S4333
G0 F4155.6 X99.355 Y50.417
M204 S3000
;TYPE:WALL-OUTER
G1 F1274.3 X99.842 Y49.947 E3.35978
G1 X100.016 Y49.779 E3.3638
G1 X100.571 Y49.242 E3.37665
G1 X100.745 Y49.074 E3.38067
G1 X101.076 Y48.753 E3.38834
G1 X101.931 Y49.124 E3.40384
G1 X102.143 Y49.216 E3.40768
G1 X102.27 Y49.271 E3.40998
G1 X102.011 Y49.521 E3.41247
G1 X101.781 Y49.494 E3.416
G1 X100.929 Y49.392 E3.43027
G1 X100.689 Y49.364 E3.43323
G1 X100.134 Y49.901 E3.43866
G1 X100.154 Y50.142 E3.44163
G1 X100.248 Y51.228 E3.45975
G1 X99.833 Y51.63 E3.46936
G1 X99.257 Y51.62 E3.47894
G1 X98.58 Y50.761 E3.49713
G1 X98.433 Y50.574 E3.50109
G1 X97.662 Y50.56 E3.51391
G1 X97.507 Y50.744 E3.51791
G1 X96.804 Y51.58 E3.53608
G1 X96.229 Y51.571 E3.54564
G1 X95.827 Y51.156 E3.55525
G1 X95.956 Y50.072 E3.5734
G1 X95.984 Y49.833 E3.57741
G1 X95.447 Y49.278 E3.59025
G1 X95.208 Y49.298 E3.59424
G1 X94.348 Y49.373 E3.60859
G1 X94.12 Y49.392 E3.6124
G1 X93.87 Y49.132 E3.6184
G1 X93.997 Y49.082
G1 X94.21 Y48.998 E3.62189
G1 X95.081 Y48.654 E3.63746
G1 X95.403 Y48.987 E3.64516
G1 X95.57 Y49.159 E3.64812
G1 X96.107 Y49.713 E3.6536
G1 X96.274 Y49.886 E3.65656
G1 X96.747 Y50.375 E3.66788
G1 X97.423 Y50.386 E3.67912
G1 X97.664 Y50.389 E3.68209
G1 X98.436 Y50.402 E3.6876
G1 X98.675 Y50.405 E3.69056
G1 X99.355 Y50.417 E3.70187
M204 S4333
G0 F4155.6 X99.499 Y50.278
G0 X99.893 Y50.295
G1 F1137.7 X100.007 Y50.464 E3.70336
G0 F4155.6 X98.936 Y50.686
G1 F1137.7 X98.734 Y50.605 E3.70531
G0 F4155.6 X97.253 Y50.672
G1 F1137.7 X97.069 Y50.573 E3.7073
G0 F4155.6 X96.214 Y50.298
G1 F1137.7 X96.151 Y50.077 E3.70929
G0 F4155.6 X95.159 Y49.089
G1 F1137.7 X94.935 Y49.03 E3.71178
G1 X94.599 Y49.084 E3.71494
G1 F3600 E0.71494
G1 F300 Z0.8
G0 F4155.6 X101.079 Y49.109 Z0.8
G1 F300 Z0.3
G1 F3600 E3.73573
G1 F1137.7 X101.304 Y49.167 E3.73845
G1 X101.528 Y49.225 E3.74051
G1 X101.753 Y49.283 E3.74193
G1 F3600 E0.74193
G1 F300 Z0.8
G0 F4155.6 X94.199 Y45.556 Z0.8
;TIME_ELAPSED:18.066198
;LAYER:2
M106 S170
M204 S4667
G0 F5377.8 X94.199 Y45.556 Z0.9
M204 S3000
;TYPE:WALL-INNER
G1 F300 Z0.4
G1 F3600 E3.76272
G1 F1713.8 X94.317 Y45.441 E3.76546
G1 X94.356 Y45.404 E3.76635
G1 X94.626 Y45.436 E3.77087
G1 X94.861 Y45.464 E3.77481
G1 X94.631 Y45.687
G1 X94.592 Y45.724
G1 X94.592 Y45.776 E3.77567
G1 X94.586 Y46.099 E3.78105
G1 X94.405 Y45.947
G1 X94.196 Y45.77 E3.78417
G1 X94.196 Y45.719 E3.78501
G1 X94.199 Y45.556 E3.78772
M204 S4667
G1 F3600 E0.78772
G1 F300 Z0.9
G0 F5377.8 X94.226 Y45.565 Z0.9
G0 X94.543 Y48.651
M204 S3000
G1 F300 Z0.4
G1 F3600 E3.80851
G1 F1713.8 X94.579 Y48.689 E3.80938
G1 X94.804 Y48.921 E3.81475
G1 X94.568 Y48.941
G1 X94.295 Y48.965 E3.81837
G1 X94.259 Y48.927 E3.81923
G1 X94.145 Y48.81 E3.82194
G1 X94.148 Y48.644 E3.8247
G1 X94.149 Y48.592 E3.82557
G1 X94.363 Y48.424 E3.83009
G1 X94.549 Y48.277 E3.83404
G1 X94.544 Y48.598
G1 X94.543 Y48.651
M204 S4667
G1 F3600 E0.83404
G1 F300 Z0.9
G0 F5377.8 X94.545 Y48.805 Z0.9
G0 X96.581 Y50.756
M204 S3000
G1 F300 Z0.4
G1 F3600 E3.85482
G1 F1713.8 X96.632 Y50.756 E3.85567
G1 X96.955 Y50.762 E3.86104
G1 X96.804 Y50.942
G1 X96.626 Y51.153 E3.8642
G1 X96.576 Y51.153 E3.86503
G1 X96.41 Y51.15 E3.86779
G1 X96.296 Y51.031 E3.87053
G1 X96.26 Y50.994 E3.87139
G1 X96.292 Y50.722 E3.87594
G1 X96.32 Y50.487 E3.87988
G1 X96.544 Y50.718
G1 X96.581 Y50.756
M204 S4667
G1 F3600 E0.87988
G1 F300 Z0.9
G0 F5377.8 X96.692 Y50.866 Z0.9
G0 X99.506 Y50.805
M204 S3000
G1 F300 Z0.4
G1 F3600 E3.90067
G1 F1713.8 X99.544 Y50.768 E3.90155
G1 X99.777 Y50.543 E3.90694
G1 X99.797 Y50.78
G1 X99.821 Y51.053 E3.91056
G1 X99.783 Y51.09 E3.91144
G1 X99.666 Y51.203 E3.91414
G1 X99.499 Y51.2 E3.91692
G1 X99.449 Y51.199 E3.91775
G1 X99.279 Y50.984 E3.92231
G1 X99.133 Y50.799 E3.92623
G1 X99.455 Y50.804
G1 X99.506 Y50.805
M204 S4667
G1 F3600 E0.92623
G1 F300 Z0.9
G0 F5377.8 X99.66 Y50.803 Z0.9
